packages/web-icons/svgs/arrow_9_down.svg

<svg viewBox="0 0 24 22" xmlns="http://www.w3.org/2000/svg" class="ridi_icon"><path d="M2 .2L0 3.3l12 8 12-8-2-3.1-10 6.6L2 .2zm0 10.5l-2 3.1 12 8 12-8-2-3.1-10 6.6-10-6.6z"/></svg>

<?xml version="1.0" encoding="UTF-8"?>
<svg width="24px" height="22px" viewBox="0 0 24 22" version="1.1" xmlns="http://www.w3.org/2000/svg">
  <!-- Generator: Sketch 41.2 (35397) - http://www.bohemiancoding.com/sketch -->
  <title>arrow_9_down</title>
  <desc>Created with Sketch.</desc>
  <defs></defs>
  <g id="Page-1" stroke="none" stroke-width="1" fill="none" fill-rule="evenodd">
    <g id="arrow_9_down" fill="#000000">
      <g id="레이어_1">
        <path d="M2,0.2 L0,3.3 L12,11.3 L24,3.3 L22,0.2 L12,6.8 L2,0.2 L2,0.2 Z M2,10.7 L0,13.8 L12,21.8 L24,13.8 L22,10.7 L12,17.3 L2,10.7 L2,10.7 Z" id="Shape"></path>
      </g>
    </g>
  </g>
</svg>
